X: 32841
T: Port Mháirtín Shéamus
R: reel
M: 4/4
K: Amajor
c3A BAA2|c3A BAA2|c3A B2 ce|ecBB cAA2|
c3A BAA2|c3A BAA2|c3A B2 ce|ecBB cAAB||
ce~e2 fe~e2|c3A BAA2|ceef e2fe|faba afe2|
ceef efa2|c3A BAA2|c3A B2 ce|ecBB cAA2||

